X: 1
T: Elmer Briand's
M: 4/4
L: 1/8
R: reel
K: Bmin
fB (3BBB BAFB | AFEF ABce | fB (3BBB BAFB | Afec fBBe |
fB (3BBB BAFB | AFEF ABce | fB (3BBB BAFB | Afec fBBe | 
(3fff fg fedf | ec (3ccc ac (3ccc | (3fff fg fedf | edce fBBe |
(3fff fg fedf | ec (3ccc ac (3ccc | fd (3ddd ge (3eee | afec fB (3BBB |
